X: 15287
T: Girls From The Gatehouse, The
R: jig
M: 6/8
K: Adorian
c|:AGE EDE|GAB ~c3|e/f/ge edB|cAG A2c|
AGE EDE|GAB ~c3|e/f/ge edB|1 A3 A2c:|2 A3 A2e||
|:~a3 age|ede g2a|~g3 ged|BAB GAB|
~c3 ~d3|eae ged|BAB DGB|1 A3 A2e:|2 A3 A2c||

